X: 1
T: Reinlendar etter Johannes [A]
R: shottish
B: Folklore Village booklet
Z: Brian Wilson &lt;baab@ma.ultranet.COM&gt;
M: C
L: 1/8
K: A
|::: "A"c&gt;d ~cB c&gt;d ~cB |     c&gt;d ~cB    c2 A2 | c2 cA "E7"B2 EG |1,3 B2 Bd "A"c2 A2 :|2,4 "A"A2 A2 A4 :|
|::: "A"c&gt;d  ef e2   ec | "E7"B2   Bd "A"c2 A2 | c2 cA "E7"B2 EG |1,3 B2 Bd "A"c2 A2 :|2,4 "A"A2 A2 A4 :|

